X: 11710
T: El Alquimista Loco
R: jig
M: 6/8
K: Cmajor
|:dAA cAA|dAA GFE|dAA cAA|dAe AfA|
dAA cAA|dAA GFE|dAA cAA|GAB cBc:|
|:def def|gab c'bc'|def def|g2a gec|
def def|gab c'bc'|d'2a gab|c'2a gec:|

